src/assets/flags/sd.svg

<?xml version="1.0" encoding="UTF-8"?>
<svg xmlns="http://www.w3.org/2000/svg" xmlns:xlink="http://www.w3.org/1999/xlink" width="25px" height="px" viewBox="0 0 25 19" version="1.1">
<g id="surface1">
<path style=" stroke:none;fill-rule:evenodd;fill:rgb(0%,0%,0.392157%);fill-opacity:1;" d="M 0 12.664062 L 37.5 12.664062 L 37.5 19 L 0 19 Z M 0 12.664062 "/>
<path style=" stroke:none;fill-rule:evenodd;fill:rgb(100%,100%,100%);fill-opacity:1;" d="M 0 6.332031 L 37.5 6.332031 L 37.5 12.664062 L 0 12.664062 Z M 0 6.332031 "/>
<path style=" stroke:none;fill-rule:evenodd;fill:rgb(100%,0%,0%);fill-opacity:1;" d="M 0 0 L 37.53125 0 L 37.53125 6.335938 L 0 6.335938 Z M 0 0 "/>
<path style=" stroke:none;fill-rule:evenodd;fill:rgb(0%,60.392159%,0%);fill-opacity:1;" d="M 0 0 L 0 19 L 12.5 9.5 Z M 0 0 "/>
</g>
</svg>

<svg xmlns="http://www.w3.org/2000/svg" width="25" height="px" viewBox="0 0 25 19"><path d="M0 12.664h37.5V19H0Zm0 0" style="stroke:none;fill-rule:evenodd;fill:#000001;fill-opacity:1"/><path d="M0 6.332h37.5v6.332H0Zm0 0" style="stroke:none;fill-rule:evenodd;fill:#fff;fill-opacity:1"/><path d="M0 0h37.531v6.336H0Zm0 0" style="stroke:none;fill-rule:evenodd;fill:red;fill-opacity:1"/><path d="M0 0v19l12.5-9.5Zm0 0" style="stroke:none;fill-rule:evenodd;fill:#009a00;fill-opacity:1"/></svg>
